newicons/emoji_clipboard.svg

<?xml version="1.0" encoding="UTF-8" standalone="no"?>
<svg
   version="1.2"
   viewBox="0 0 48 48"
   id="svg10"
   xmlns="http://www.w3.org/2000/svg"
   xmlns:svg="http://www.w3.org/2000/svg">
  <defs
     id="defs1" />
  <path
     d="m 29.745009,8.4480741 h 5.954444 V 40.643335 c 0,1.025374 -0.83032,1.856666 -1.854633,1.856666 H 14.155178 c -1.024313,0 -1.854632,-0.831292 -1.854632,-1.856666 V 8.4480741 h 6.055582"
     fill="none"
     stroke="#ffffff"
     stroke-linecap="round"
     stroke-linejoin="round"
     stroke-width="1"
     id="path1" />
  <path
     d="m 28.037904,7.8242345 h -2.34679 c 0.08049,-0.1969303 0.125744,-0.4121798 0.125744,-0.6381359 0,-0.9312415 -0.754155,-1.6860998 -1.684438,-1.6860998 -0.930284,0 -1.684254,0.7548583 -1.684254,1.6860998 0,0.2259561 0.04507,0.4412056 0.125683,0.6381359 h -2.510616 c -1.463305,0 -2.649652,1.1875852 -2.649652,2.6525565 h 13.273975 c 0,-1.4649713 -1.186346,-2.6525565 -2.649651,-2.6525565 v 0"
     fill="none"
     stroke="#ffffff"
     stroke-linecap="round"
     stroke-linejoin="round"
     stroke-width="1"
     id="path2" />
  <path
     d="M 28.743406,39.064859 V 35.06783 l 4.561406,-0.0024 -4.550216,3.999443 H 14.822908 V 10.207545"
     fill="none"
     stroke="#ffffff"
     stroke-linecap="round"
     stroke-linejoin="round"
     stroke-width="1"
     id="path3" />
  <path
     d="M 33.305493,10.207545 V 35.065416"
     fill="none"
     stroke="#ffffff"
     stroke-linecap="round"
     stroke-linejoin="round"
     stroke-width="1"
     id="path4" />
  <path
     d="m 17.098356,15.04722 h 7.892511"
     fill="none"
     stroke="#ffffff"
     stroke-linecap="round"
     stroke-linejoin="round"
     stroke-width="1"
     id="path5" />
  <path
     d="M 17.098356,17.522774 H 27.597058"
     fill="none"
     stroke="#ffffff"
     stroke-linecap="round"
     stroke-linejoin="round"
     stroke-width="1"
     id="path6" />
  <path
     d="M 17.098356,19.998328 H 29.586337"
     fill="none"
     stroke="#ffffff"
     stroke-linecap="round"
     stroke-linejoin="round"
     stroke-width="1"
     id="path7" />
  <path
     d="M 17.098356,22.473882 H 25.47678"
     fill="none"
     stroke="#ffffff"
     stroke-linecap="round"
     stroke-linejoin="round"
     stroke-width="1"
     id="path8" />
  <path
     d="M 17.098356,24.949436 H 27.243689"
     fill="none"
     stroke="#ffffff"
     stroke-linecap="round"
     stroke-linejoin="round"
     stroke-width="1"
     id="path9" />
  <path
     d="m 17.098356,27.424991 h 4.402959"
     fill="none"
     stroke="#ffffff"
     stroke-linecap="round"
     stroke-linejoin="round"
     stroke-width="1"
     id="path10" />
  <path
     style="fill:none;stroke:#ffffff;stroke-width:1;stroke-linecap:round;stroke-linejoin:round;stroke-dashoffset:0.5"
     d="m 33.305493,10.207545 h -2.63142"
     id="path11" />
  <path
     style="fill:none;stroke:#ffffff;stroke-width:1;stroke-linecap:round;stroke-linejoin:round;stroke-dashoffset:0.5"
     d="m 14.822908,10.207545 h 2.604156"
     id="path12" />
</svg>

<?xml version="1.0" encoding="UTF-8"?><svg id="a" xmlns="http://www.w3.org/2000/svg" viewBox="0 0 48 48"><defs><style>.n{fill:none;stroke:#fff;stroke-linecap:round;stroke-linejoin:round;}</style></defs><path id="b" class="n" d="M29.745,8.4481h5.9544v32.1953c0,1.0254-.8303,1.8567-1.8546,1.8567H14.1552c-1.0243,0-1.8546-.8313-1.8546-1.8567V8.4481h6.0556"/><path id="c" class="n" d="M28.0379,7.8242h-2.3468c.0805-.1969.1257-.4122.1257-.6381,0-.9312-.7542-1.6861-1.6844-1.6861s-1.6843.7549-1.6843,1.6861c0,.226.0451.4412.1257.6381h-2.5106c-1.4633,0-2.6497,1.1876-2.6497,2.6526h13.274c0-1.465-1.1863-2.6526-2.6497-2.6526h0"/><path id="d" class="n" d="M28.7434,39.0649v-3.997l4.5614-.0024-4.5502,3.9994h-13.9317V10.2075"/><path id="e" class="n" d="M33.3055,10.2075v24.8579"/><path id="f" class="n" d="M17.0984,15.0472h7.8925"/><path id="g" class="n" d="M17.0984,17.5228h10.4987"/><path id="h" class="n" d="M17.0984,19.9983h12.488"/><path id="i" class="n" d="M17.0984,22.4739h8.3784"/><path id="j" class="n" d="M17.0984,24.9494h10.1453"/><path id="k" class="n" d="M17.0984,27.425h4.403"/><path id="l" class="n" d="M33.3055,10.2075h-2.6314"/><path id="m" class="n" d="M14.8229,10.2075h2.6042"/></svg>
